X:0513
T:The Sailor Laddie.
M:6/8
L:1/8
Q:3/8=120
I: :: ::
Z:Jack Campin * www.campin.me.uk * 2009
K:G
D   |G2g dBG|(EA).A A2B   |G2g dBG|Bde g2
a   |bag ede| aAA   A2B   |def gdc|BGG G2::
g/a/|bag ede| aAA   A2g/a/|bag ege|def gdB|
     c2a B2g| aAA   A2B   |G2g ded|BGG G2:|
<end>
<start>
